X: 189
T: l'Allment
B: 204 Favourite Country Dances
N: Published by Straight & Skillern, London ca.1775
F: http://imslp.org/wiki/204_Favourite_Country_Dances_(Various) p.95 #189
Z: 2014 John Chambers <jc:trillian.mit.edu>
M: 2/4
L: 1/8
K: G
% - - - - - - - - - - - - - - - - - - - - - - - - -
|:\
G2GG | B3d | ABcA | BA/B/ G2 |\
G2GG | B3d | gf ed/^c/ | d2D2 :|\
|:\
D2FA | D3B | cBAG | FG/A/ D2 |
D2FA | D3B | cB AG/F/ | G2G,2 :|\
|:\
a2fd | a2fd | cBAG | FG/A/ D2 |\
a2fd | a2fd | cB AG/F/ | G2G,2 :|
% - - - - - - - - - - - - - - - - - - - - - - - - -
%%begintext align
%% The 1st & 2d Cu. foot it & turn Single .| the same
%% back again .|. the 1st Man foot it to the 2d Wo. &
%% turn her :|. the 1st Wo. foot it to the 2d Man and
%% turn :|: Cross over one Cu .||. Right & Left at top :||:
%%endtext

%%sep 1 1 500
%%sep 1 1 500
